src/DGGeoclicker/skin/dark/img/DGPopup__ratingStarOff_dark.svg

<svg xmlns="http://www.w3.org/2000/svg" width="14" height="14"><path fill="#aaa" d="M7.002 0l1.749 4.989 5.249.002-4.167 3.717 1.494 5.294-4.325-3.131-4.325 3.131 1.494-5.294-4.168-3.717 5.249-.002 1.75-4.989z"/></svg>

<svg xmlns="http://www.w3.org/2000/svg" width="14" height="14">
    <path d="M 7.002,0 8.751,4.989 14,4.991 9.833,8.708 11.327,14.002 7.002,10.871 2.677,14.002 4.171,8.708 0.003,4.991 5.252,4.989 7.002,0 z" fill="#aaa"/>
</svg>
